X:1
T:Missa "Au travail suis"
T:Missa "Au travail suis" -2 Gloria
T:Johannes Ockeghem
T:in excelsis Deo
T:Ed. Charles Weaver
C:Johannes Ockeghem
%%score [ 1 2 3 4 ]
L:1/8
Q:1/4=120
M:4/4
K:C
V:1 treble nm="Superius" snm="S."
V:2 treble-8 nm="Altus" snm="A."
V:3 bass nm="Tenor" snm="T."
V:4 bass nm="Bassus" snm="B."
V:1
 D4 F4 | E2 E2 A,4 | A,4 G,2 G,2 | A,2 C2 D2 E2- | ED G2 F2 E2- | ED D4 ^C2 | D4 z4 | z8 | z8 | %9
w: Et in|ter- ra pax|ho- mi- ni-|bus bo- nae vo-|* * * lun- ta-||tis.|||
 z4 z2 E2 | E2 E4 E2 | D4 G3 E | F3 G A2 _B2- | B2 A4 G2- | G2 ^F2 G4 | z8 | z8 | z4 A4 | %18
w: a-|do- ra- mus|te, glo- *|ri- * fi- ca-|* * mus|_ _ te|||pro-|
 A4 A2 A2 | A2 A2 c4 | _B2 A4 G2 | F2 E3 D D2- | D2 ^C2 D4 | z4 E2 E2 | F2 F2 E2 A2- | A2 G2 F3 D | %26
w: pter mag- nam|glo- ri- am|tu- * *||* * am.|Do- mi-|ne De- us, Rex|_ cœ- le- *|
 E4 z4 | z8 | z8 | z8 | z8 | z8 | z8 | z8 | z2 C4 D2 | E4 F4 | G6 FE | !fermata!E8 || A4 A2 A2- | %39
w: stis||||||||Je- *|* su|Chri- * *|ste.|Do- mi- ne|
 A2 A3 G E2 | z2 G2 A2 B2- | B2 A3 ^F ^G2 | A4 z4 | z8 | z4 A4 | B2 c3 B G2 | A2 F2 E2 DG | %47
w: _ De- * us,|A- gnus De-||i.||Fi-|li- us _ _|Pa- * * * *|
 F D2 ^C !fermata!D4 || A8 | A4 B4 | c4 A4- | A2 G2 G4 | F4 A4- | A2 G2 E4 | z4 D4- | D4 D4 | %56
w: * * * tris.|Qui|tol- lis|pec- ca-|* * ta|_ mun-|* * di,|mi-|* se-|
 F6 D2 | E4 D4 | G6 A2 | _B4 A4- | A4 F4- | F2 D2 E4 | !fermata!F8 || z8 | z8 | z8 | z8 | z8 | z8 | %69
w: re- *|re _|no- *||||bis.|||||||
 z8 | A8- | A4 A4 | A8 | c8- | c4 c4 | c4 c4 | A4 F4 | z4 F4 | G4 _B4- | B2 A2 A4- | A4 G4 | %81
w: |Su-|* sci-|pe|de-|* pre-|ca- ti-|o- nem|no-||||
 A4 B4 | !fermata!A8 || z8 | z8 | z8 | z8 | z8 | z8 | z8 | z8 | z8 | z8 | z4 A4- | A2 A2 A4 | %95
w: stram. _|_|||||||||||Quo-|* ni- am|
 G4 A4 | B2 c4 A2- | A2 ^G2 A4 | A4 c4- | c2 B2 G4 | F4 G2 A2 | _BAGF E4 | z8 | z8 | z8 | z8 | z8 | %107
w: tu so-|* lus san-|* * ctus,|tu so-|* * lus|Do- * mi-|nus, _ _ _ _||||||
 G8 | A8 | B8 | c8 | G8 | G4 G4 | A4 F4 | E4 E4 | A4 A4 | G4 A4 | B4 c4- | c2 A2 A4 | z4 ^G4 | %120
w: Je-|su|Chri-|ste.|Cum|San- cto|Spi- ri-|tu, in|glo- ri-|aDe- i|Pa- *|* * tris|A-|
 A4 c4- | c2 B2 A4 | G6 E2 | F6 G2 | A2 B2 c2 A2- | A2 G2 A2 F2 |[M:3/2] E2 G3 F D2 E3 G | %127
w: |||||||
 !fermata!^F8 |] %128
w: men.|
V:2
 z8 | z8 | z8 | z8 | z8 | z8 | z2 d2 c4 | B4 A4 | z8 | z4 c4 | c2 c4 c2 | d4 z4 | z8 | z8 | z8 | %15
w: ||||||Lau- da-|mus- te,||a-|do- ra- mus|te.||||
 a4 a2 a2 | a2 a2 f2 f2 | e4 z4 | f4 f4 | f4 e4 | f4 e2 c2 | d2 c4 A2 | A4 z4 | B2 B2 c2 c2 | %24
w: Gra- ti- as|a- gi- mus ti-|bi|pro pter|ma- gnam|glo- ri- am|tu- * *|am.|Do- mi- ne De-|
 d4 A4 | c4 d4 | A4 a2 a2- | a2 g2 f2 _b2- | b2 a4 g2 | f2 a3 g e2 | d2 g4 f2- | f2 e4 d2 | e4 z4 | %33
w: us, Rex|cœ- le-|stis, De- us|_ Pa- ter o-|* mni- po-|tens. Do- * *|* mi- ne|_ Fi- *|li|
 z8 | z8 | g4 f4 | d6 c2 | !fermata!c8 || f4 f2 f2 | f3 e c4 | e4 d4- | d2 c2 B4 | A4 z4 | z8 | %44
w: ||Je- su|Chri- *|te.|Do- mi- ne|De- * us,|A- gnus|_ _ De-|i,||
 z4 c3 B/A/ | G2 A3 B c2 | z2 d2 c A2 G | A>_B G2 !fermata!A4 || z8 | z8 | z8 | z8 | z8 | z8 | z8 | %55
w: Fi- * *|* li- * us|Pa- * * *|* * * tris.||||||||
 z8 | z8 | z8 | z8 | z8 | z8 | z8 | z8 || f8 | f4 d4 | c4 f4 | e4 d4- | d2 c2 c4- | c4 B4 | c8 | %70
w: ||||||||Qui|tol- lis|pec- ca-|* ta|_ _ mun-||di,|
 A8- | A4 A4 | d8 | e8- | e4 e4 | e4 e4 | f6 d2 | e4 f4 | _e2 c4 _B2 | d8- | d4 c4 | d6 B2 | %82
w: Su-|* sci-|pe|de-|* pre-|ca- ti-|o- *|nem no-|||||
 !fermata!c8 || z8 | z8 | z8 | z8 | z8 | z8 | z8 | z8 | z8 | z8 | z4 f4- | f2 f2 f4 | e4 c3 B/A/ | %96
w: stram.|||||||||||Quo-|* ni- am|tu so- * *|
 G2 A4 c2 | B4 A4 | z8 | z8 | z8 | z8 | c3 d e2 A2- | A2 d4 c2 | f2 ef g2 f2- | f2 d4 ^c2 | d4 z4 | %107
w: * * lus|san- ctus,|||||tu _ _ so-|* lus Al-|tis- * * * si-||mus,|
 c8 | d8 | e8 | e8 | c8 | c4 c4 | A4 B4 | c4 c4 | d4 d4 | e4 f4- | f4 e4- | e4 c4 | d8 | e8 | %121
w: Je-|su|Chri-|te.|Cum|San- cto|Spi- ri-|tu, in|glo- ri-|a De-||* i|Pa-|tris.|
 A4 d4- | d2 B2 c4 | d4 B2 c2 | d2 e4 c2 | d2 B2 A4 |[M:3/2] c2 B3 A d3 B ^c2 | !fermata!d8 |] %128
w: A- *||||||men.|
V:3
 z8 | z4 D,4 | F,4 E,2 E,2 | A,,4 z4 | G,4 A,4 | F,2 D,2 E,4 | D,4 z4 | z4 z2 D,2 | C,2 E,4 C,2 | %9
w: |Et|in ter- ra|pax|bo- nae|vo- lun- ta-|tis|Be-|ne- di- ci-|
 B,,4 A,,4 | A,,2 A,,2 A,,2 A,,2 | B,,2 G,,3 A,,B,,C, | D,3 E, F,2 G,2- | G,2 F,2 G,4 | A,4 G,4 | %15
w: mus te,|a- do- ra- mus-|ta, glo- * * *|* * * ri-|* fi- ca-|mus te.|
 z8 | z8 | z4 z2 F,2- | F,2 F,2 F,2 F,2 | D,2 D,2 C,4 | D,3 C, A,,2 G,2 | A,6 F,2 | E,4 D,4- | %23
w: ||prop-|* pter ma- gnam|glo- ri- am|tu- * * *||* am|
 D,4 z4 | z8 | z8 | z8 | z8 | z8 | z8 | z8 | z8 | z2 C,4 D,2 | E,4 F,4 | E,4 z4 | C,4 D,4 | G,,8 | %37
w: _|||||||||u- ni-|ge- ni-|te|Je- su|Chri-|
 !fermata!A,,8 || z8 | z8 | z8 | z8 | z4 C,4 | D,4 E,4 | F,4 E,2 C,2 | D,2 E,3 F, G,2 | %46
w: ste.|||||||||
 F,2 A,4 D,E, | F,G, E,2 !fermata!D,4 || z8 | z8 | z8 | z8 | z8 | z8 | z8 | z8 | z8 | z8 | z8 | %59
w: |||||||||||||
 z8 | z8 | z8 | z8 || F,8- | F,8 | F,4 D,4 | C,4 F,4- | F,4 E,4 | D,8 | C,8 | F,8- | F,4 F,4 | %72
w: ||||Qui|_|tol- lis|pec- ca-|* ta|mun-|di,|Su-|* sci-|
 F,8 | A,8- | A,4 A,4 | A,4 A,4 | A,6 G,E, | E,4 D,4 | G,8 | F,8 | D,4 E,4 | F,6 D,2 | %82
w: pe|de-|* pre-|ca- ti-|o- * *||nem|_|no- *||
 !fermata!E,8 || E,8 | D,4 F,4- | F,2 E,2 E,4 | D,4 A,4- | A,2 A,2 A,4 | z2 A,3 G, G,2 | %89
w: stram.|Qui|se- *|* * des|ad dex-|* te- ram|Pa- * *|
 F,2 A,2 B,2 C2- | C2 A,4 G,2 | E,2 C,4 D,2 | C,2 F,4 E,2 | F,4 z4 | z8 | z8 | z8 | z8 | z8 | z8 | %100
w: tris, mi- se- re-||* * re|no- * *|bis.|||||||
 z8 | z8 | E,3 F, G,2 A,2- | A,2 F,2 E,4 | D,2 C,D, C,2 D,2- | D,2 F,2 E,4 | D,4 z4 | E,8 | D,8 | %109
w: ||tu _ _ so-|* * lus|Al- * * * tis-|* * si-|mus,|Je-|su|
 G,8 | A,8 | E,8 | C,4 C,4 | F,4 F,4 | G,4 G,4 | D,4 D,4 | G,4 F,4 | D,4 A,4- | A,8 | B,6 A,B, | %120
w: Chri-|ste.|Cum|San- cto|Spi- ri-|tu, in|glo- ri-|a De-|* i|_|Pa- * *|
 C4 A,4- | A,4 F,4 | G,8 | A,4 z2 G,2 | F,2 E,2 A,,4 | D,2 G,,2 D,4 |[M:3/2] A,,2 G,,4 D,2 A,,4 | %127
w: |||tris. A-||||
 !fermata!A,8 |] %128
w: men.|
V:4
 z8 | z8 | z8 | z8 | z8 | z8 | z2 F,2 E,2 A,2- | A,2 !courtesy!^G,2 A,2 F,2 | E,2 C,2 E,2 F,G,- | %9
w: ||||||Lau- da- *|* mus te, be-|ne- di- ci- mus _|
 G,F, D,2 z2 A,2- | A,2 A,2 A,2 A,2 | D,4 z4 | z8 | z8 | z8 | F,4 F,2 F,2 | F,2 F,2 D,2 D,2 | %17
w: _ _ te, a-|* do- ra- mus|te.||||Gra- ti- as|a- gi- mus ti-|
 C,4 C4 | C2 C4 A,2 | F,2 F,2 G,4 | F,2 A,3 G,/F,/ E,2 | D,2 A,,2 C,2 D,2 | A,,4 A,4 | z8 | z8 | %25
w: bi pro-|pter ma- gnam|glo- ri- am|tu- * * * *||* am.|||
 z8 | z4 F,2 F,2 | E,2 E,2 D,4 | C,4 _B,,4 | A,,4 C,4 | D,2 E,4 D,2 | G,2 A,2 F,4 | E,4 z4 | %33
w: |De- us|Pa- ter o-|mni- po-|tens. Do-|* mi- ne|Fi- * *|li|
 z2 C,4 D,2 | E,4 F,4 | E,4 A,4 | _B,6 A,2 | !fermata!A,8 || z8 | z8 | z8 | z8 | z4 (3:2:1A,,6- | %43
w: u- ni-|ge- ni-|te Chri-||te.||||||
 (3A,,2 B,,4 C,6- | (3:2:2C,2 D,4 A,,3 C, | B,,2 A,,2 E,4 | D,4 A,,2 _B,,2 | %47
w: ||||
 A,,2 z2 !fermata!D,4 || F,8 | F,4 D,4 | C,4 F,4- | F,4 E,4 | D,8 | C,8 | D,8 | D,4 D,4- | %56
w: |||||||||
 D,2 C,2 B,,2 A,,2 | C,4 D,4 | E,8 | D,4 C,4 | F,8 | G,8 | !fermata!F,8 || z8 | z8 | z8 | z8 | z8 | %68
w: ||||||||||||
 z8 | z8 | D,8- | D,4 D,4 | D,8 | A,,8- | A,,4 A,,4 | A,,4 A,,4 | D,8 | C,4 D,4 | _E,8 | D,4 F,4- | %80
w: ||Su-|* sci-|pe|de-|* pre-|ca- ti-|o-|nem _|_|no- *|
 F,4 E,4 | D,6 C,2 | !fermata!A,,8 || C,8 | D,8 | C,8 | D,8 | F,6 F,2 | F,4 E,4 | F,4 z4 | %90
w: ||stram|Qui|se-|des|ad|dex- te-|ram Pa-|tris,|
 C,4 F,4 | G,4 A,4- | A,2 F,2 G,4 | F,4 z4 | z8 | z8 | z8 | z8 | A,,8 | C,8 | D,4 E,2 F,2- | %101
w: mi- se-|re- *|* re no-|bis.|||||tu|so-|lus Do- *|
 F,2 D,2 C,4 | z8 | z8 | z8 | z8 | z8 | C,8 | F,8 | E,8 | A,,8 | C,8 | E,4 E,4 | D,4 D,4 | %114
w: * mi- nus,||||||Je-|su|Chri-|ste.|Cum|San- cto|Spi- ri-|
 C,4 C,4 | F,4 F,4 | E,4 D,4- | D,2 C,2 A,,4- | A,,4 C,4 | B,,8 | A,,8 | C,4 D,4 | E,8 | D,6 E,2 | %124
w: tu, in|glo- ri-|a De-||* i|Pa-|tris|A- *|||
 F,2 G,2 A,4 | F,2 G,2 F,2 D,2 |[M:3/2] C,2 D,4 F,2 E,4 | !fermata!D,8 |] %128
w: |||men.|

